<?xml version="1.0" encoding="UTF-8"?>
<map version="1.10" tiledversion="1.12.1" orientation="orthogonal" renderorder="right-down" width="80" height="20" tilewidth="16" tileheight="16" infinite="0" nextlayerid="8" nextobjectid="23">
 <editorsettings>
  <export target="main_level.tmj" format="json"/>
 </editorsettings>
 <tileset firstgid="1" name="kenny_pixel_tilemap_packed" tilewidth="16" tileheight="16" tilecount="60" columns="10">
  <properties>
   <property name="collides" type="bool" value="false"/>
  </properties>
  <image source="kenney_pixel-line-platformer/Tilemap/tilemap_packed.png" width="160" height="96"/>
  <tile id="0">
   <properties>
    <property name="collides" type="bool" value="false"/>
   </properties>
  </tile>
  <tile id="1">
   <properties>
    <property name="collides" type="bool" value="false"/>
   </properties>
  </tile>
  <tile id="2">
   <properties>
    <property name="collides" type="bool" value="false"/>
   </properties>
  </tile>
  <tile id="3">
   <properties>
    <property name="collides" type="bool" value="true"/>
   </properties>
  </tile>
  <tile id="4">
   <properties>
    <property name="collides" type="bool" value="true"/>
   </properties>
  </tile>
  <tile id="5">
   <properties>
    <property name="collides" type="bool" value="true"/>
   </properties>
  </tile>
  <tile id="6">
   <properties>
    <property name="collides" type="bool" value="true"/>
   </properties>
  </tile>
  <tile id="7">
   <properties>
    <property name="collides" type="bool" value="true"/>
   </properties>
  </tile>
  <tile id="8">
   <properties>
    <property name="collides" type="bool" value="true"/>
   </properties>
  </tile>
  <tile id="9">
   <properties>
    <property name="collides" type="bool" value="true"/>
   </properties>
  </tile>
  <tile id="10">
   <properties>
    <property name="collides" type="bool" value="false"/>
   </properties>
  </tile>
  <tile id="11">
   <properties>
    <property name="collides" type="bool" value="false"/>
   </properties>
  </tile>
  <tile id="12">
   <properties>
    <property name="collides" type="bool" value="false"/>
   </properties>
  </tile>
  <tile id="13">
   <properties>
    <property name="collides" type="bool" value="true"/>
   </properties>
  </tile>
  <tile id="14">
   <properties>
    <property name="collides" type="bool" value="false"/>
   </properties>
  </tile>
  <tile id="15">
   <properties>
    <property name="collides" type="bool" value="true"/>
   </properties>
  </tile>
  <tile id="16">
   <properties>
    <property name="collides" type="bool" value="true"/>
   </properties>
  </tile>
  <tile id="17">
   <properties>
    <property name="collides" type="bool" value="false"/>
   </properties>
  </tile>
  <tile id="18">
   <properties>
    <property name="collides" type="bool" value="true"/>
   </properties>
  </tile>
  <tile id="19">
   <properties>
    <property name="collides" type="bool" value="true"/>
   </properties>
  </tile>
  <tile id="20">
   <properties>
    <property name="collides" type="bool" value="true"/>
   </properties>
  </tile>
  <tile id="21">
   <properties>
    <property name="collides" type="bool" value="true"/>
   </properties>
  </tile>
  <tile id="22">
   <properties>
    <property name="collides" type="bool" value="true"/>
   </properties>
  </tile>
  <tile id="23">
   <properties>
    <property name="collides" type="bool" value="true"/>
   </properties>
  </tile>
  <tile id="24">
   <properties>
    <property name="collides" type="bool" value="true"/>
   </properties>
  </tile>
  <tile id="25">
   <properties>
    <property name="collides" type="bool" value="true"/>
   </properties>
  </tile>
  <tile id="26">
   <properties>
    <property name="collides" type="bool" value="false"/>
   </properties>
  </tile>
  <tile id="27">
   <properties>
    <property name="collides" type="bool" value="true"/>
   </properties>
  </tile>
  <tile id="28">
   <properties>
    <property name="collides" type="bool" value="true"/>
   </properties>
  </tile>
  <tile id="29">
   <properties>
    <property name="collides" type="bool" value="true"/>
   </properties>
  </tile>
  <tile id="30">
   <properties>
    <property name="collides" type="bool" value="false"/>
   </properties>
  </tile>
  <tile id="31">
   <properties>
    <property name="collides" type="bool" value="false"/>
   </properties>
  </tile>
  <tile id="32">
   <properties>
    <property name="collides" type="bool" value="false"/>
   </properties>
  </tile>
  <tile id="33">
   <properties>
    <property name="collides" type="bool" value="false"/>
   </properties>
  </tile>
  <tile id="34">
   <properties>
    <property name="collides" type="bool" value="false"/>
   </properties>
  </tile>
  <tile id="35">
   <properties>
    <property name="collides" type="bool" value="false"/>
   </properties>
  </tile>
  <tile id="36">
   <properties>
    <property name="collides" type="bool" value="true"/>
   </properties>
  </tile>
  <tile id="37">
   <properties>
    <property name="collides" type="bool" value="true"/>
   </properties>
  </tile>
  <tile id="38">
   <properties>
    <property name="collides" type="bool" value="true"/>
   </properties>
  </tile>
  <tile id="39">
   <properties>
    <property name="collides" type="bool" value="false"/>
   </properties>
  </tile>
  <tile id="40">
   <properties>
    <property name="collides" type="bool" value="false"/>
   </properties>
  </tile>
  <tile id="41">
   <properties>
    <property name="collides" type="bool" value="false"/>
   </properties>
  </tile>
  <tile id="42">
   <properties>
    <property name="collides" type="bool" value="false"/>
   </properties>
  </tile>
  <tile id="43">
   <properties>
    <property name="collides" type="bool" value="false"/>
   </properties>
  </tile>
  <tile id="44">
   <properties>
    <property name="collides" type="bool" value="false"/>
   </properties>
  </tile>
  <tile id="45">
   <properties>
    <property name="collides" type="bool" value="false"/>
   </properties>
  </tile>
  <tile id="46">
   <properties>
    <property name="collides" type="bool" value="false"/>
   </properties>
  </tile>
  <tile id="47">
   <properties>
    <property name="collides" type="bool" value="false"/>
   </properties>
  </tile>
  <tile id="48">
   <properties>
    <property name="collides" type="bool" value="false"/>
   </properties>
  </tile>
  <tile id="49">
   <properties>
    <property name="collides" type="bool" value="false"/>
   </properties>
  </tile>
  <tile id="50">
   <properties>
    <property name="collides" type="bool" value="false"/>
   </properties>
  </tile>
  <tile id="51">
   <properties>
    <property name="collides" type="bool" value="false"/>
   </properties>
  </tile>
  <tile id="52">
   <properties>
    <property name="collides" type="bool" value="false"/>
   </properties>
  </tile>
  <tile id="53">
   <properties>
    <property name="collides" type="bool" value="false"/>
   </properties>
  </tile>
  <tile id="54">
   <properties>
    <property name="collides" type="bool" value="false"/>
   </properties>
  </tile>
  <tile id="55">
   <properties>
    <property name="collides" type="bool" value="false"/>
   </properties>
  </tile>
  <tile id="56">
   <properties>
    <property name="collides" type="bool" value="false"/>
   </properties>
  </tile>
  <tile id="57">
   <properties>
    <property name="collides" type="bool" value="false"/>
   </properties>
  </tile>
  <tile id="58">
   <properties>
    <property name="collides" type="bool" value="false"/>
   </properties>
  </tile>
  <tile id="59">
   <properties>
    <property name="collides" type="bool" value="false"/>
   </properties>
  </tile>
 </tileset>
 <layer id="1" name="Background" width="80" height="20">
  <data encoding="csv">
15,15,18,18,18,18,18,15,15,15,15,18,15,15,18,15,18,18,18,18,18,15,15,18,15,15,18,15,15,18,15,18,15,15,18,15,15,18,15,18,18,15,15,15,18,15,15,18,15,15,15,15,18,15,18,15,15,15,18,18,18,15,18,15,18,15,18,18,18,15,15,18,15,18,18,18,15,15,18,15,
18,18,18,15,18,18,15,18,15,18,18,18,18,18,15,18,18,18,18,18,15,18,15,18,18,15,18,18,18,15,18,18,18,18,18,18,15,18,15,18,15,18,18,18,18,18,18,18,18,18,18,18,18,15,15,18,18,15,18,15,15,15,18,15,18,18,15,18,18,15,18,18,15,18,18,18,18,18,18,15,
18,15,18,15,15,15,18,18,15,15,18,18,18,18,18,15,18,15,18,15,15,15,18,15,15,18,15,15,18,18,15,18,18,18,18,15,15,15,15,18,18,18,18,15,18,15,18,18,18,15,18,15,18,15,18,18,15,18,15,15,18,18,15,15,15,15,18,18,15,18,15,18,18,18,18,18,15,18,15,18,
18,18,18,18,15,15,15,15,18,15,18,18,18,15,15,18,18,18,18,18,18,15,15,15,15,15,18,18,18,18,18,15,15,15,15,15,15,15,15,15,15,15,18,18,15,15,15,15,15,18,18,15,18,18,15,15,15,15,15,15,18,18,18,18,18,18,18,15,15,15,18,15,18,15,15,15,15,18,18,15,
15,18,15,18,18,15,18,15,18,15,18,15,15,18,18,15,18,18,15,15,18,15,15,18,15,15,18,15,18,18,18,15,15,15,18,15,15,18,18,18,18,18,18,15,15,18,18,18,15,15,18,15,18,15,15,15,18,15,18,18,15,15,15,18,18,15,15,15,15,15,15,15,18,15,18,15,18,15,15,15,
18,15,15,15,15,15,15,15,15,15,15,18,15,18,18,15,18,18,18,15,18,15,18,15,18,18,18,15,18,18,18,18,18,18,18,18,18,18,18,18,18,18,18,15,15,15,15,18,15,18,18,15,18,15,18,15,15,18,15,18,18,15,15,18,15,18,15,18,18,15,15,18,15,18,18,15,18,15,18,18,
15,15,15,15,15,18,15,15,18,15,15,15,15,18,15,15,15,18,18,18,15,18,15,18,18,18,15,15,18,15,15,15,15,15,15,15,18,15,15,18,18,15,18,18,18,18,18,18,18,15,15,15,15,15,18,18,15,18,18,18,18,15,15,18,15,15,15,15,15,18,18,15,18,15,18,18,15,15,18,15,
18,15,18,18,15,18,18,18,15,15,15,15,15,15,15,18,18,18,15,18,15,15,15,15,18,15,18,15,18,15,15,15,18,18,18,18,18,18,15,15,15,18,15,18,15,15,18,15,15,15,18,18,18,15,18,18,18,15,18,18,18,18,15,18,15,18,18,15,15,18,15,18,18,18,18,15,18,18,15,15,
15,15,15,18,18,15,18,15,15,15,18,18,15,15,18,15,18,18,15,18,15,15,18,15,15,18,18,18,15,15,18,18,15,15,18,18,18,18,15,15,18,15,15,18,15,18,18,15,15,18,18,18,15,15,15,15,15,15,15,18,18,18,15,18,18,18,18,15,15,15,18,15,15,15,15,18,15,15,18,15,
15,15,18,18,18,18,18,18,15,18,18,18,18,15,15,18,15,15,18,15,18,18,18,18,18,15,15,18,18,15,15,15,18,15,18,18,15,15,15,15,15,15,15,15,15,15,15,18,15,15,15,18,18,18,18,15,15,18,18,15,18,18,15,18,18,18,18,15,18,18,15,18,18,18,15,15,18,18,18,18,
18,18,18,15,18,15,18,18,18,18,15,18,15,18,15,15,18,15,15,18,18,15,18,15,18,18,15,15,18,15,15,15,15,15,15,18,15,15,15,15,18,18,18,18,18,18,15,15,15,15,18,18,15,15,15,18,15,15,15,18,15,15,18,18,15,18,15,18,15,15,18,18,15,15,18,15,15,15,18,18,
15,18,18,18,15,18,18,15,18,15,15,18,15,15,15,18,18,18,15,18,18,15,15,18,15,18,15,18,15,18,18,15,18,18,18,18,15,18,15,18,15,18,18,18,18,15,18,18,18,15,15,15,15,15,18,18,18,15,15,15,15,15,15,15,18,15,18,15,18,18,15,15,18,18,15,18,18,18,15,15,
15,18,15,18,18,18,15,18,15,15,18,18,15,15,15,15,18,18,15,15,18,18,18,15,15,15,18,18,18,15,15,18,15,15,18,18,18,15,15,18,18,18,15,18,18,15,18,15,18,18,18,18,18,15,15,15,18,18,18,18,18,18,15,15,15,18,15,15,18,15,15,15,18,15,15,18,18,15,18,18,
18,18,15,15,18,15,15,18,15,15,18,15,15,15,18,18,15,15,15,18,18,15,18,15,18,15,18,18,18,18,18,18,15,15,18,15,18,15,18,15,15,18,18,15,18,15,18,15,18,18,18,15,18,15,15,18,15,18,15,18,18,18,18,15,18,15,18,18,18,15,15,18,15,18,18,15,18,15,15,15,
15,15,18,15,18,15,15,18,18,18,18,18,18,18,15,15,18,15,18,15,15,18,15,15,18,18,18,15,15,18,15,18,18,18,18,15,18,18,15,18,15,18,15,15,18,18,18,15,15,18,18,18,15,18,18,15,18,18,15,18,18,18,15,18,15,18,18,15,15,18,18,15,15,18,15,18,15,18,18,18,
18,15,18,15,15,15,15,15,18,18,15,18,15,15,15,15,18,18,15,18,15,15,18,15,15,18,18,18,15,18,18,15,18,18,15,15,18,18,15,15,15,15,18,18,15,18,15,18,15,18,18,15,18,18,18,15,15,15,15,18,15,15,15,18,18,15,15,15,18,15,18,15,18,15,18,18,18,15,15,18,
18,18,15,15,18,18,15,15,15,18,15,18,18,15,15,15,18,18,18,15,15,15,18,15,18,15,15,18,18,18,15,15,18,15,15,15,15,15,18,15,15,15,15,15,18,18,15,18,15,18,15,18,18,18,15,18,18,15,18,15,15,18,18,18,18,15,18,15,15,18,18,18,18,18,15,18,18,15,15,18,
18,15,18,15,18,15,15,18,18,18,18,15,15,18,15,15,18,15,18,15,15,18,18,15,18,18,18,15,15,18,18,18,15,18,18,18,18,15,15,15,18,15,15,18,18,15,15,15,15,18,18,15,15,15,18,15,15,15,15,15,15,18,18,18,15,18,15,15,18,18,15,15,18,15,18,15,15,18,18,18,
15,18,15,18,18,15,18,18,18,18,15,18,15,18,15,18,18,15,15,18,18,18,18,18,18,18,18,18,15,18,18,18,18,15,18,15,18,15,15,18,18,18,15,18,18,15,18,18,18,18,18,18,15,18,18,15,18,18,18,15,15,15,18,18,15,18,15,15,15,15,15,15,18,15,15,18,18,15,18,15,
18,15,18,15,18,18,18,15,15,18,18,18,15,15,15,15,18,15,15,15,15,15,15,18,18,15,15,15,18,15,18,15,15,18,15,18,18,15,18,18,15,18,18,15,18,18,18,15,18,18,15,18,15,18,18,15,15,15,15,15,15,18,18,15,18,18,15,18,18,18,18,15,18,15,15,15,15,15,15,18
</data>
 </layer>
 <layer id="6" name="Clouds" width="80" height="20">
  <data encoding="csv">
0,0,0,0,0,0,0,0,0,0,0,0,0,0,0,0,0,0,0,0,0,0,0,0,0,0,0,0,0,0,0,0,0,0,0,0,0,0,0,0,0,0,0,0,0,0,0,0,0,0,0,0,0,0,0,0,0,0,0,0,0,0,0,0,0,0,0,0,0,0,0,0,0,0,0,0,0,0,0,0,
0,0,0,0,0,0,0,0,0,0,0,0,0,0,0,0,0,0,0,0,0,0,0,0,0,0,0,0,0,0,0,0,0,0,0,0,0,0,0,0,0,0,0,0,0,0,0,0,0,0,0,0,0,0,0,0,0,0,0,0,0,0,0,0,0,0,0,0,0,0,0,0,0,0,0,0,0,0,0,0,
0,0,0,0,0,0,0,13,0,0,0,0,0,0,0,0,0,0,0,0,0,0,0,0,0,0,0,0,0,0,0,0,0,0,0,0,0,0,0,0,0,2,3,0,0,0,0,0,0,13,0,0,0,0,0,0,0,0,0,0,0,12,0,0,0,0,0,0,0,0,0,0,0,0,0,0,0,0,0,0,
0,0,0,2,3,0,0,0,0,0,0,0,0,0,0,0,0,0,0,0,0,0,0,0,0,0,0,0,0,0,0,0,0,0,0,0,12,0,0,0,0,0,0,0,0,0,0,0,0,0,0,0,0,0,0,0,0,0,0,0,0,0,0,0,0,0,0,0,13,0,0,0,0,0,0,0,0,0,0,0,
0,0,0,0,0,0,0,0,0,0,0,0,0,0,0,0,0,0,0,0,0,0,0,0,0,0,0,13,0,0,0,0,0,0,0,0,0,0,0,0,0,0,0,0,0,0,0,0,0,0,0,0,0,0,0,0,0,0,0,0,0,0,0,0,0,0,0,0,0,0,0,0,0,0,0,0,0,0,0,0,
0,0,0,0,0,0,0,0,0,0,0,0,0,0,0,0,0,0,0,0,0,0,0,0,0,0,0,0,0,0,0,0,0,0,0,0,0,0,0,0,0,0,0,0,0,0,0,0,0,0,0,0,0,0,0,0,0,0,0,0,0,0,0,0,0,0,0,0,0,0,0,0,0,0,0,0,2,3,0,0,
0,0,0,0,0,0,0,0,0,0,0,0,0,0,0,0,0,0,0,0,0,0,0,0,0,0,0,0,0,0,0,0,0,0,0,0,0,0,0,0,0,0,0,0,0,0,0,0,0,0,0,0,0,0,0,0,0,0,0,0,0,0,0,0,0,0,0,0,0,0,0,0,0,0,0,0,0,0,0,0,
0,0,0,0,0,0,0,0,0,0,0,12,0,0,0,0,0,0,0,0,0,0,0,0,0,0,0,0,0,0,0,0,0,0,0,0,0,0,0,0,0,0,0,0,0,0,0,0,0,0,0,0,0,0,0,0,0,0,0,0,0,0,0,0,0,0,0,0,0,0,0,0,0,0,0,0,0,0,0,0,
0,0,0,0,0,0,0,0,0,0,0,0,0,0,0,0,0,0,0,0,0,0,0,0,0,0,0,0,0,0,0,2,3,0,0,0,0,0,0,0,0,0,0,0,0,0,12,0,0,0,0,0,0,2,3,0,0,0,0,0,0,0,0,0,0,0,0,0,12,0,0,0,0,0,0,0,0,0,0,0,
0,0,0,0,0,0,0,0,0,0,0,0,0,0,0,0,0,0,0,0,0,0,0,0,0,0,0,0,0,0,0,0,0,0,0,0,0,0,0,0,0,0,0,0,0,0,0,0,0,0,0,0,0,0,0,0,0,0,0,0,0,0,0,0,0,0,0,0,0,0,0,0,0,0,0,0,0,0,0,0,
0,0,0,0,0,0,0,0,0,0,0,2,3,0,0,0,0,0,0,0,0,0,0,2,3,0,0,0,0,0,0,0,0,0,0,0,0,0,0,0,0,0,0,0,0,0,0,0,0,0,0,0,0,0,0,0,0,0,0,0,0,0,0,0,0,0,0,0,0,0,0,0,0,0,0,0,0,0,0,0,
0,0,0,0,0,0,0,0,0,0,0,0,0,0,0,0,0,12,0,0,0,0,0,0,0,0,0,0,0,0,0,0,0,0,0,0,0,0,0,0,0,0,0,0,0,0,0,0,0,0,0,0,0,0,0,0,0,0,0,0,0,0,0,0,0,0,0,0,0,0,0,0,0,0,0,0,0,0,0,0,
0,0,12,0,0,0,0,0,0,0,0,0,0,0,0,0,0,0,0,0,0,0,0,0,0,0,0,12,0,0,0,0,0,0,0,0,0,0,0,0,0,0,0,0,0,0,0,0,0,0,0,0,0,0,0,0,0,0,0,0,0,0,0,0,0,0,0,0,0,0,0,0,0,0,0,0,0,0,0,0,
0,0,0,0,0,0,0,0,0,0,0,0,0,0,0,0,0,0,0,0,0,0,0,0,0,0,0,0,0,0,0,0,0,0,0,0,0,0,0,0,0,0,0,0,0,0,0,0,0,0,0,0,0,0,0,12,0,0,0,0,0,0,0,0,0,0,0,0,0,0,0,0,0,0,0,0,0,0,0,0,
0,0,0,0,0,0,0,0,0,0,0,0,0,0,0,0,0,0,0,0,0,0,0,0,0,0,0,0,0,0,0,0,0,0,0,0,0,0,0,0,0,0,0,2,3,0,0,0,0,0,0,0,0,0,0,0,0,0,0,0,0,0,0,0,0,0,0,0,0,0,0,0,0,0,0,0,0,0,0,0,
0,0,0,0,0,0,0,0,0,0,0,0,0,0,0,0,0,0,0,0,0,0,0,0,0,0,0,0,0,0,0,0,0,0,0,0,0,0,0,0,0,13,0,0,0,0,0,0,0,0,0,0,0,0,0,0,0,0,0,0,0,0,0,0,0,0,2,3,0,0,0,0,0,0,0,0,0,0,0,0,
0,0,0,0,0,0,0,0,0,0,0,0,0,0,0,0,13,0,0,0,0,0,0,0,0,0,0,0,0,0,0,0,0,0,0,0,0,0,0,0,0,0,0,0,0,0,0,0,0,0,0,0,0,0,0,0,0,0,0,0,0,0,0,0,0,0,0,0,0,0,0,0,0,0,0,0,0,0,0,0,
0,0,0,0,0,0,0,0,0,0,0,0,0,0,0,0,0,0,0,0,0,0,0,0,0,0,0,0,0,0,0,0,0,0,0,0,0,0,0,0,0,0,0,0,0,0,0,0,0,0,0,0,0,0,0,0,0,0,0,0,0,0,0,0,0,0,0,0,0,0,0,0,0,0,0,0,13,0,0,0,
0,0,0,0,0,0,0,0,0,0,0,0,0,0,0,0,0,0,0,0,0,0,0,0,0,0,0,0,0,0,0,0,0,0,0,0,0,0,0,0,0,0,0,0,0,0,0,0,0,0,0,0,0,0,0,0,0,0,0,0,0,0,0,0,0,0,0,0,0,0,0,0,0,0,0,0,0,0,0,0,
0,0,0,0,0,0,0,0,0,12,0,0,0,0,0,0,0,0,0,0,12,0,0,0,0,0,0,0,0,0,0,0,0,0,0,0,0,0,0,0,0,0,0,0,0,0,0,0,0,0,0,0,0,0,0,0,0,0,0,0,0,0,0,0,0,0,0,0,0,0,0,0,0,0,0,0,0,0,0,0
</data>
 </layer>
 <layer id="2" name="Ground-n-Platforms" width="80" height="20">
  <data encoding="csv">
0,0,0,0,0,0,0,0,0,0,0,0,0,0,0,0,0,0,14,16,0,0,0,0,0,0,0,0,0,14,0,0,0,0,0,0,0,0,0,0,0,0,0,0,14,0,0,0,0,0,0,0,0,0,0,0,0,0,0,14,0,0,0,0,0,0,0,0,0,0,0,0,0,0,0,0,0,0,0,0,
0,0,0,0,0,0,0,0,0,0,0,0,0,0,0,0,0,0,14,16,0,0,0,0,0,0,0,0,0,14,0,0,0,0,0,0,0,0,0,0,0,0,0,0,14,0,0,0,0,0,0,0,0,0,0,0,0,0,0,14,0,0,0,0,0,0,0,0,0,0,0,0,0,0,0,0,0,0,0,0,
0,0,0,0,0,0,0,0,0,0,0,0,0,0,0,0,0,0,14,16,0,0,0,0,0,0,0,0,0,14,0,0,0,0,0,0,0,0,0,0,0,0,0,0,14,22,0,0,0,0,0,0,0,0,0,0,0,0,0,14,0,0,0,0,0,0,0,0,0,0,0,0,0,0,0,0,0,0,28,29,
20,0,0,0,0,0,0,0,0,0,0,0,10,0,0,0,0,0,14,16,23,22,23,0,0,0,0,0,0,14,0,0,0,0,0,0,0,0,0,0,0,0,0,0,14,0,0,0,0,0,0,0,0,0,0,0,0,0,0,14,0,0,0,0,0,0,0,0,0,0,0,0,0,0,0,0,0,0,0,0,
30,0,0,0,0,0,0,0,10,0,0,0,0,0,0,0,0,0,14,16,0,0,0,0,0,0,0,0,0,14,0,0,0,0,0,0,0,0,0,4,6,0,0,0,14,0,0,0,0,0,0,4,5,0,0,5,6,0,0,14,0,0,0,0,0,0,0,37,0,0,0,0,0,0,0,0,0,0,0,0,
0,0,0,0,0,0,0,0,0,0,0,0,0,0,0,0,0,0,14,16,0,0,0,0,0,0,0,0,0,14,0,0,0,0,0,0,0,0,0,14,16,0,0,0,14,0,0,0,0,0,0,14,0,0,0,0,16,0,0,14,0,0,0,0,0,4,8,9,0,0,0,28,29,0,0,0,0,0,0,0,
0,0,0,0,20,0,0,0,0,0,0,0,0,0,0,0,0,0,14,16,0,0,0,0,28,29,0,0,0,14,0,0,0,0,0,0,0,0,0,14,16,0,0,0,14,0,27,23,26,0,0,14,25,23,24,0,16,0,0,14,0,25,23,24,0,14,0,0,0,0,0,0,0,0,0,0,0,0,0,0,
0,0,0,0,30,0,0,0,0,0,0,0,0,0,0,0,0,0,14,16,0,0,0,0,0,0,0,0,0,14,0,0,0,0,0,0,0,0,0,14,16,0,0,0,14,0,0,0,0,0,0,14,0,0,0,0,16,0,0,14,0,0,0,0,0,14,0,0,0,0,0,0,0,0,0,0,0,0,0,0,
0,0,0,0,0,0,0,0,0,0,0,0,0,0,0,0,0,0,14,16,0,0,0,0,0,0,0,0,0,14,0,0,0,0,0,0,0,0,0,14,16,0,0,0,14,0,0,0,0,0,0,14,0,0,0,0,16,0,0,14,0,0,0,0,0,14,0,0,0,0,0,0,0,0,0,0,0,0,0,0,
20,0,0,0,0,0,0,0,0,0,0,0,0,0,0,0,0,0,17,19,0,0,0,0,0,0,0,0,0,14,0,0,0,0,0,0,0,0,0,14,16,0,0,0,14,0,0,0,0,0,0,14,0,0,25,26,16,0,0,14,0,0,0,0,0,14,0,0,0,0,0,0,0,0,0,28,29,0,0,0,
30,0,0,0,0,0,0,0,0,0,0,0,0,0,16,0,0,0,0,0,0,0,0,0,0,0,0,0,0,14,0,0,0,0,39,0,0,0,0,14,16,0,0,23,24,0,0,0,0,0,0,14,0,0,0,0,16,0,0,14,25,23,26,0,0,14,0,0,0,0,0,39,0,0,0,0,0,0,0,0,
0,0,0,0,20,0,0,0,0,0,0,0,0,0,16,0,0,0,0,0,0,28,29,0,0,0,0,0,0,14,0,0,0,0,48,0,0,0,0,14,16,0,0,0,0,0,0,0,0,39,0,14,25,26,0,0,16,0,0,14,0,0,0,0,0,14,0,0,0,0,0,49,0,0,0,0,0,0,0,0,
0,0,0,0,30,0,0,0,0,0,0,0,0,0,16,0,0,0,0,0,0,0,0,0,0,39,0,0,0,0,0,0,0,0,49,0,0,0,0,14,16,0,0,0,0,0,0,0,0,49,0,14,0,0,0,0,16,0,0,14,0,0,0,0,0,14,0,0,0,0,0,59,0,0,0,0,0,0,7,9,
0,0,0,0,0,0,0,0,0,0,0,0,0,0,16,0,0,0,0,0,0,0,0,0,0,49,0,0,0,0,0,0,0,0,59,0,0,0,0,14,27,22,0,0,0,0,0,0,0,59,0,14,0,0,0,0,16,0,0,14,0,0,0,0,0,14,0,0,0,0,25,21,22,24,0,0,0,0,14,16,
20,0,0,0,0,0,0,0,0,0,0,0,0,0,16,0,0,0,0,0,0,0,0,0,0,50,0,0,0,0,0,0,0,0,22,0,0,0,0,14,0,0,0,0,0,0,0,0,4,22,23,24,0,0,0,0,16,0,0,14,0,0,0,0,0,14,0,0,0,0,0,0,0,0,39,0,0,0,14,16,
30,0,0,0,0,0,0,0,4,5,5,6,0,0,16,0,0,0,4,8,5,5,9,0,0,49,0,39,0,28,8,5,29,0,0,0,0,0,0,14,0,0,0,0,0,0,0,0,14,0,0,0,0,0,39,0,16,0,0,14,25,22,26,0,0,14,0,0,0,0,0,0,0,0,49,0,0,0,14,16,
0,0,0,0,0,0,0,0,14,0,0,16,0,0,16,0,0,0,14,0,25,26,16,0,0,40,0,60,0,0,0,0,0,0,0,0,0,0,0,14,0,0,0,0,0,39,0,0,14,0,0,0,0,0,49,0,16,0,0,14,0,0,0,0,0,14,0,39,0,0,0,0,0,0,59,0,0,0,14,16,
0,0,0,4,5,6,0,0,14,25,26,16,0,0,19,0,0,0,14,0,0,0,16,0,0,48,0,21,0,0,0,0,0,0,0,0,0,0,0,14,0,0,0,0,0,49,0,0,14,0,0,0,0,0,50,0,16,0,0,0,0,0,0,0,0,14,0,49,0,0,0,0,25,22,23,26,0,0,14,16,
0,0,0,14,0,16,0,0,14,0,0,16,0,37,0,0,0,0,17,25,26,0,19,0,0,59,0,0,0,0,0,0,0,0,0,0,0,0,0,14,22,0,0,0,0,59,0,0,14,25,21,26,0,0,49,0,16,0,0,0,0,0,0,0,0,14,0,59,0,0,0,0,0,0,0,0,0,0,14,16,
21,21,21,21,21,21,21,21,17,0,0,19,21,21,0,0,0,0,0,0,0,0,0,0,0,21,0,0,0,27,21,26,0,0,0,25,22,23,24,14,0,0,0,0,0,23,0,0,17,0,0,0,0,0,48,0,25,22,23,24,0,0,25,22,23,24,21,22,24,0,0,0,0,0,0,0,0,0,14,16
</data>
 </layer>
 <objectgroup id="7" name="Objects">
  <object id="1" name="flower" gid="34" x="0" y="48" width="16" height="16"/>
  <object id="3" name="flower" gid="34" x="192" y="48" width="16" height="16"/>
  <object id="4" name="flower" gid="34" x="160" y="240" width="16" height="16"/>
  <object id="5" name="flower" gid="34" x="64" y="272" width="16" height="16"/>
  <object id="6" name="flower" gid="34" x="192" y="304" width="16" height="16"/>
  <object id="7" name="flower" gid="34" x="304" y="240" width="16" height="16"/>
  <object id="8" name="flower" gid="34" x="400" y="192" width="16" height="16"/>
  <object id="9" name="flower" gid="34" x="320" y="48" width="16" height="16"/>
  <object id="10" name="flower" gid="34" x="384" y="96" width="16" height="16"/>
  <object id="11" name="flower" gid="34" x="480" y="304" width="16" height="16"/>
  <object id="12" name="flower" gid="34" x="544" y="160" width="16" height="16"/>
  <object id="13" name="flower" gid="34" x="592" y="304" width="16" height="16"/>
  <object id="14" name="flower" gid="34" x="640" y="288" width="16" height="16"/>
  <object id="15" name="flower" gid="34" x="720" y="32" width="16" height="16"/>
  <object id="16" name="flower" gid="34" x="800" y="288" width="16" height="16"/>
  <object id="17" name="flower" gid="34" x="992" y="96" width="16" height="16"/>
  <object id="18" name="flower" gid="34" x="800" y="288" width="16" height="16"/>
  <object id="19" name="flower" gid="34" x="1056" y="304" width="16" height="16"/>
  <object id="20" name="flower" gid="34" x="1264" y="32" width="16" height="16"/>
  <object id="21" name="endpoint" gid="31" x="1264" y="192" width="16" height="16"/>
  <object id="22" name="spawnpoint" gid="32" x="16" y="304" width="16" height="16"/>
 </objectgroup>
 <layer id="4" name="End" width="80" height="20">
  <data encoding="csv">
0,0,0,0,0,0,0,0,0,0,0,0,0,0,0,0,0,0,0,0,0,0,0,0,0,0,0,0,0,0,0,0,0,0,0,0,0,0,0,0,0,0,0,0,0,0,0,0,0,0,0,0,0,0,0,0,0,0,0,0,0,0,0,0,0,0,0,0,0,0,0,0,0,0,0,0,0,0,0,0,
0,0,0,0,0,0,0,0,0,0,0,0,0,0,0,0,0,0,0,0,0,0,0,0,0,0,0,0,0,0,0,0,0,0,0,0,0,0,0,0,0,0,0,0,0,0,0,0,0,0,0,0,0,0,0,0,0,0,0,0,0,0,0,0,0,0,0,0,0,0,0,0,0,0,0,0,0,0,0,0,
0,0,0,0,0,0,0,0,0,0,0,0,0,0,0,0,0,0,0,0,0,0,0,0,0,0,0,0,0,0,0,0,0,0,0,0,0,0,0,0,0,0,0,0,0,0,0,0,0,0,0,0,0,0,0,0,0,0,0,0,0,0,0,0,0,0,0,0,0,0,0,0,0,0,0,0,0,0,0,0,
0,0,0,0,0,0,0,0,0,0,0,0,0,0,0,0,0,0,0,0,0,0,0,0,0,0,0,0,0,0,0,0,0,0,0,0,0,0,0,0,0,0,0,0,0,0,0,0,0,0,0,0,0,0,0,0,0,0,0,0,0,0,0,0,0,0,0,0,0,0,0,0,0,0,0,0,0,0,0,0,
0,0,0,0,0,0,0,0,0,0,0,0,0,0,0,0,0,0,0,0,0,0,0,0,0,0,0,0,0,0,0,0,0,0,0,0,0,0,0,0,0,0,0,0,0,0,0,0,0,0,0,0,0,0,0,0,0,0,0,0,0,0,0,0,0,0,0,0,0,0,0,0,0,0,0,0,0,0,0,0,
0,0,0,0,0,0,0,0,0,0,0,0,0,0,0,0,0,0,0,0,0,0,0,0,0,0,0,0,0,0,0,0,0,0,0,0,0,0,0,0,0,0,0,0,0,0,0,0,0,0,0,0,0,0,0,0,0,0,0,0,0,0,0,0,0,0,0,0,0,0,0,0,0,0,0,0,0,0,0,0,
0,0,0,0,0,0,0,0,0,0,0,0,0,0,0,0,0,0,0,0,0,0,0,0,0,0,0,0,0,0,0,0,0,0,0,0,0,0,0,0,0,0,0,0,0,0,0,0,0,0,0,0,0,0,0,0,0,0,0,0,0,0,0,0,0,0,0,0,0,0,0,0,0,0,0,0,0,0,0,0,
0,0,0,0,0,0,0,0,0,0,0,0,0,0,0,0,0,0,0,0,0,0,0,0,0,0,0,0,0,0,0,0,0,0,0,0,0,0,0,0,0,0,0,0,0,0,0,0,0,0,0,0,0,0,0,0,0,0,0,0,0,0,0,0,0,0,0,0,0,0,0,0,0,0,0,0,0,0,0,0,
0,0,0,0,0,0,0,0,0,0,0,0,0,0,0,0,0,0,0,0,0,0,0,0,0,0,0,0,0,0,0,0,0,0,0,0,0,0,0,0,0,0,0,0,0,0,0,0,0,0,0,0,0,0,0,0,0,0,0,0,0,0,0,0,0,0,0,0,0,0,0,0,0,0,0,0,0,0,0,0,
0,0,0,0,0,0,0,0,0,0,0,0,0,0,0,0,0,0,0,0,0,0,0,0,0,0,0,0,0,0,0,0,0,0,0,0,0,0,0,0,0,0,0,0,0,0,0,0,0,0,0,0,0,0,0,0,0,0,0,0,0,0,0,0,0,0,0,0,0,0,0,0,0,0,0,0,0,0,0,0,
0,0,0,0,0,0,0,0,0,0,0,0,0,0,0,0,0,0,0,0,0,0,0,0,0,0,0,0,0,0,0,0,0,0,0,0,0,0,0,0,0,0,0,0,0,0,0,0,0,0,0,0,0,0,0,0,0,0,0,0,0,0,0,0,0,0,0,0,0,0,0,0,0,0,0,0,0,0,0,0,
0,0,0,0,0,0,0,0,0,0,0,0,0,0,0,0,0,0,0,0,0,0,0,0,0,0,0,0,0,0,0,0,0,0,0,0,0,0,0,0,0,0,0,0,0,0,0,0,0,0,0,0,0,0,0,0,0,0,0,0,0,0,0,0,0,0,0,0,0,0,0,0,0,0,0,0,0,0,0,31,
0,0,0,0,0,0,0,0,0,0,0,0,0,0,0,0,0,0,0,0,0,0,0,0,0,0,0,0,0,0,0,0,0,0,0,0,0,0,0,0,0,0,0,0,0,0,0,0,0,0,0,0,0,0,0,0,0,0,0,0,0,0,0,0,0,0,0,0,0,0,0,0,0,0,0,0,0,0,0,0,
0,0,0,0,0,0,0,0,0,0,0,0,0,0,0,0,0,0,0,0,0,0,0,0,0,0,0,0,0,0,0,0,0,0,0,0,0,0,0,0,0,0,0,0,0,0,0,0,0,0,0,0,0,0,0,0,0,0,0,0,0,0,0,0,0,0,0,0,0,0,0,0,0,0,0,0,0,0,0,0,
0,0,0,0,0,0,0,0,0,0,0,0,0,0,0,0,0,0,0,0,0,0,0,0,0,0,0,0,0,0,0,0,0,0,0,0,0,0,0,0,0,0,0,0,0,0,0,0,0,0,0,0,0,0,0,0,0,0,0,0,0,0,0,0,0,0,0,0,0,0,0,0,0,0,0,0,0,0,0,0,
0,0,0,0,0,0,0,0,0,0,0,0,0,0,0,0,0,0,0,0,0,0,0,0,0,0,0,0,0,0,0,0,0,0,0,0,0,0,0,0,0,0,0,0,0,0,0,0,0,0,0,0,0,0,0,0,0,0,0,0,0,0,0,0,0,0,0,0,0,0,0,0,0,0,0,0,0,0,0,0,
0,0,0,0,0,0,0,0,0,0,0,0,0,0,0,0,0,0,0,0,0,0,0,0,0,0,0,0,0,0,0,0,0,0,0,0,0,0,0,0,0,0,0,0,0,0,0,0,0,0,0,0,0,0,0,0,0,0,0,0,0,0,0,0,0,0,0,0,0,0,0,0,0,0,0,0,0,0,0,0,
0,0,0,0,0,0,0,0,0,0,0,0,0,0,0,0,0,0,0,0,0,0,0,0,0,0,0,0,0,0,0,0,0,0,0,0,0,0,0,0,0,0,0,0,0,0,0,0,0,0,0,0,0,0,0,0,0,0,0,0,0,0,0,0,0,0,0,0,0,0,0,0,0,0,0,0,0,0,0,0,
0,0,0,0,0,0,0,0,0,0,0,0,0,0,0,0,0,0,0,0,0,0,0,0,0,0,0,0,0,0,0,0,0,0,0,0,0,0,0,0,0,0,0,0,0,0,0,0,0,0,0,0,0,0,0,0,0,0,0,0,0,0,0,0,0,0,0,0,0,0,0,0,0,0,0,0,0,0,0,0,
0,0,0,0,0,0,0,0,0,0,0,0,0,0,0,0,0,0,0,0,0,0,0,0,0,0,0,0,0,0,0,0,0,0,0,0,0,0,0,0,0,0,0,0,0,0,0,0,0,0,0,0,0,0,0,0,0,0,0,0,0,0,0,0,0,0,0,0,0,0,0,0,0,0,0,0,0,0,0,0
</data>
 </layer>
 <layer id="5" name="Foreground" width="80" height="20">
  <data encoding="csv">
0,0,0,0,0,0,0,0,0,0,0,0,0,0,0,0,0,0,0,0,0,0,0,0,0,0,0,0,0,0,0,0,0,0,0,0,0,0,0,0,0,0,0,0,0,0,0,0,0,0,0,0,0,0,0,0,0,0,0,0,0,0,0,0,0,0,0,0,0,0,0,0,0,0,0,0,0,0,0,0,
0,0,0,0,0,0,0,0,0,0,0,0,0,0,0,0,0,0,0,0,0,0,0,0,0,0,0,0,0,0,0,0,0,0,0,0,0,0,0,0,0,0,0,0,0,0,0,0,0,0,0,0,0,0,0,0,0,0,0,0,0,0,0,0,0,0,0,0,0,0,0,0,0,0,0,0,0,0,0,0,
0,0,0,0,0,0,0,0,0,0,0,0,0,0,0,0,0,0,0,0,0,0,35,0,0,0,0,0,0,0,0,0,0,0,0,0,0,0,0,0,0,0,0,0,0,0,0,0,0,0,0,0,0,0,0,0,0,0,0,0,0,0,0,0,0,0,0,0,0,0,0,0,0,0,0,0,0,0,0,0,
0,0,0,0,0,0,0,0,35,0,0,0,0,0,0,0,0,0,0,0,0,0,0,0,0,0,0,0,0,0,0,0,0,0,0,0,0,0,0,35,0,0,0,0,0,0,0,0,0,0,0,0,0,0,0,0,0,0,0,0,0,0,0,0,0,0,0,0,0,0,0,0,0,0,0,0,0,0,0,0,
0,0,0,0,0,0,0,0,0,0,0,0,0,0,0,0,0,0,0,0,0,0,0,0,0,0,0,0,0,0,0,0,0,0,0,0,0,0,0,0,0,0,0,0,0,0,0,0,0,0,0,0,0,0,0,0,0,0,0,0,0,0,0,0,0,0,0,0,0,0,0,36,0,0,0,0,0,0,0,0,
0,0,0,0,0,0,0,0,0,0,0,0,0,0,0,0,0,0,0,0,0,0,0,0,0,0,0,0,0,0,0,0,0,0,0,0,0,0,0,0,0,0,0,0,0,0,0,35,0,0,0,0,0,0,0,0,0,0,0,0,0,0,0,0,0,0,0,0,0,0,0,0,0,0,0,0,0,0,0,0,
0,0,0,0,0,0,0,0,0,0,0,0,0,0,0,0,0,0,0,0,0,0,0,0,0,0,0,0,0,0,0,0,0,0,0,0,0,0,0,0,0,0,0,0,0,0,0,0,0,0,0,0,0,0,0,0,0,0,0,0,0,0,0,0,0,0,0,0,0,0,0,0,0,0,0,0,0,0,0,0,
0,0,0,0,0,0,0,0,0,0,0,0,0,0,0,0,0,0,0,0,0,0,0,0,0,0,0,0,0,0,0,0,0,0,0,0,0,0,0,0,0,0,0,0,0,0,0,0,0,0,0,0,0,0,0,0,0,0,0,0,0,0,0,0,0,0,0,0,0,0,0,0,0,0,0,0,0,0,0,0,
0,0,0,0,0,0,0,0,0,0,0,0,0,0,0,0,0,0,0,0,0,0,0,0,0,0,0,0,0,0,0,0,0,0,0,0,0,0,0,0,0,0,0,0,0,0,0,0,0,0,0,0,0,0,0,0,0,0,0,0,0,0,0,0,0,0,0,0,0,0,0,0,0,0,0,0,35,0,0,0,
0,0,0,0,0,0,0,0,0,0,0,0,0,0,0,0,0,0,0,0,0,0,0,0,0,0,0,0,0,0,0,0,0,0,0,0,0,0,0,0,0,0,0,0,0,0,0,0,0,0,0,0,0,0,0,0,0,0,0,0,0,36,0,0,0,0,0,0,0,0,0,0,0,0,0,0,0,0,0,0,
0,0,0,0,36,0,0,0,0,0,0,0,0,0,0,0,0,0,0,0,0,0,0,0,0,0,0,0,0,0,0,0,0,0,0,0,0,0,0,0,0,0,0,0,0,0,0,0,0,0,0,0,0,0,0,0,0,0,0,0,0,0,0,0,0,0,0,0,0,0,0,0,0,0,0,0,0,0,0,0,
0,0,0,0,0,0,0,0,0,0,0,0,0,0,0,0,0,0,0,0,0,0,0,0,0,0,0,0,0,0,0,0,0,0,0,0,0,0,0,0,0,0,0,0,0,0,0,0,0,0,0,0,0,0,0,0,0,0,0,0,0,0,0,0,0,0,0,0,0,0,0,0,0,0,0,0,0,0,0,0,
0,0,0,0,0,0,0,0,0,0,0,0,0,0,0,0,0,0,0,0,0,0,0,0,0,0,0,0,0,0,0,0,0,0,0,0,0,0,0,0,0,36,0,0,0,0,0,0,0,0,0,0,0,0,0,0,0,0,0,0,0,0,0,0,0,0,0,0,0,0,0,0,35,0,0,0,0,0,0,0,
0,0,0,0,0,0,0,0,0,0,0,0,0,0,0,0,0,0,0,0,0,0,0,0,0,0,0,0,0,0,0,0,0,0,0,0,0,0,0,0,0,0,0,0,0,0,0,0,35,0,0,0,0,0,0,0,0,0,0,0,0,0,0,0,0,0,0,0,0,0,0,0,0,0,0,0,0,0,0,0,
0,0,0,0,0,0,0,0,35,0,0,0,0,0,0,0,0,0,0,0,0,35,36,0,0,0,0,0,0,0,36,0,36,0,0,0,0,0,0,0,0,0,0,0,0,0,0,0,0,0,0,0,0,0,0,0,0,0,0,0,0,0,0,0,0,0,0,0,0,0,0,0,0,0,0,0,0,0,0,0,
0,0,0,0,0,0,0,0,0,0,0,0,0,0,0,0,0,0,0,0,0,0,0,0,0,0,0,0,0,0,0,0,0,0,0,0,0,0,0,0,0,0,0,0,0,0,0,0,0,0,0,0,0,0,0,0,0,0,0,0,0,0,0,0,0,0,0,0,0,0,0,0,0,0,0,0,0,0,0,0,
0,0,0,0,0,0,0,0,0,0,0,0,0,0,0,0,0,0,0,0,0,0,0,0,0,0,0,0,0,0,0,0,0,0,0,0,0,0,0,0,0,0,0,0,0,0,0,0,0,0,0,0,0,0,0,0,0,0,0,0,0,0,0,0,0,0,0,0,0,0,0,0,0,0,0,0,0,0,0,0,
0,0,0,0,0,0,0,0,0,0,0,0,0,0,0,0,0,0,0,0,0,0,0,0,0,0,0,0,0,0,0,0,0,0,0,0,0,0,0,0,0,0,0,0,0,0,0,0,0,0,0,0,0,0,0,0,0,0,0,0,0,0,0,0,0,0,0,0,0,0,0,0,0,0,0,0,0,0,0,0,
0,0,0,0,0,0,0,0,0,0,0,0,0,0,0,0,0,0,0,0,0,0,0,0,0,0,0,0,0,0,0,0,0,0,0,0,0,0,0,0,0,0,0,0,0,0,0,0,0,0,0,0,0,0,0,0,0,0,36,0,0,0,0,0,35,0,0,0,0,0,0,0,0,0,0,0,0,0,0,0,
0,0,0,0,0,0,0,0,0,0,0,0,0,0,0,0,0,0,0,0,0,0,0,0,0,0,0,0,0,0,0,0,0,0,0,0,0,0,0,0,0,0,0,0,0,0,0,0,0,0,0,0,0,0,0,0,0,0,0,0,0,0,0,0,0,0,0,0,0,0,0,0,0,0,0,0,0,0,0,0
</data>
 </layer>
</map>
